X: 9706
T: Deck The Halls
R: hornpipe
M: 4/4
K: Dmajor
|:"G" d3 c B2 A2|G2 A2 B2 G2|"C" ABcA "G" B3 A|"D" G2 F2 "G" G4:|
"D" A3 B c2 A2|"G" B3 c d2 A2|Bc d2 "A" ef g2|"D" f2 e2 d4
"G" d3 c B2 A2|G2 A2 B2 G2|"Am" AecA "G" d3 c|"D" B2 A2 "G" G4||

